app/images/dist/cloud-change.svg

<svg width="48" height="48" viewBox="0 0 48 48" fill="none" xmlns="http://www.w3.org/2000/svg">
<path d="M16.2196 23.7C10.5796 24.1 10.5996 32.3 16.2196 32.7H29.5596C31.1796 32.72 32.7396 32.1001 33.9396 31.0201C37.8996 27.5601 35.7796 20.62 30.5796 19.96C28.7196 8.68001 12.4196 12.96 16.2796 23.7" stroke="#DC143C" stroke-width="1.5" stroke-miterlimit="10" stroke-linecap="round" stroke-linejoin="round"/>
<path d="M4 30C4 37.74 10.26 44 18 44L15.9 40.5" stroke="#DC143C" stroke-width="1.5" stroke-linecap="round" stroke-linejoin="round"/>
<path d="M44 18C44 10.26 37.74 4 30 4L32.1 7.5" stroke="#DC143C" stroke-width="1.5" stroke-linecap="round" stroke-linejoin="round"/>
</svg>

<svg width="48" height="48" fill="none" xmlns="http://www.w3.org/2000/svg"><path d="M16.22 23.7c-5.64.4-5.62 8.6 0 9h13.34c1.62.02 3.18-.6 4.38-1.68 3.96-3.46 1.84-10.4-3.36-11.06-1.86-11.28-18.16-7-14.3 3.74" stroke="#DC143C" stroke-width="1.5" stroke-miterlimit="10" stroke-linecap="round" stroke-linejoin="round"/><path d="M4 30c0 7.74 6.26 14 14 14l-2.1-3.5M44 18c0-7.74-6.26-14-14-14l2.1 3.5" stroke="#DC143C" stroke-width="1.5" stroke-linecap="round" stroke-linejoin="round"/></svg>
